X:1
T:Orders from the King
T:Orders from the King
T:Samuel W. Beazley
T:Brown Rowland, 1916
T:Public Domain Courtesy of the Cyber Hymnal™
T:Public Domain Courtesy of the Cyber Hymnal™
T:Public Domain Courtesy of the Cyber Hymnal™
C:Samuel W. Beazley
Z:Public Domain
Z:Courtesy of the Cyber Hymnal™
%%score 1 ( 2 3 )
L:1/8
Q:1/4=98
M:4/4
K:Bb
V:1 treble 
V:2 bass 
V:3 bass 
V:1
 [DF][^C=E][DF] | [Fd]2 [Fd]3 [DF][^C=E][DF] | [Fd]2 [Fd]3 [DF][^C=E][DF] | %3
w: 1.~The world is|wait- ing to hear the|Gos- pel, The world is|
w: 2.~Waste not the|mo- ments, for they are|pre- cious, Let not the|
w: 3.~A- cross the|bor- der a crown is|wait- ing For those who|
 [Fd][Ge][Fd][Ec] [DB][DF][DG][DB] | [EA]2 [EA]3 [EF][EG][EF] | [Ee]2 [Fe]3 [EF][EG][EF] | %6
w: wait- ing for the ev- er- last- ing|sto- ry; So wake, ye|peo- ple, put on your|
w: Mas- ter’s work seem te- dious or ap-|pall- ing; Raise high the|stan- dard, and keep it|
w: do His bid- ding here, com- plain- ing|ne- ver; And life e-|ter- nal, and rest and|
 [Ee]2 [Fe]3 [EF][EG][EF] | [Fe][Ec][EA][EF] [EA][Ec][Ee][Ff] | [Fd]2 [Fd]3 [DF][^C=E][DF] | %9
w: ar- mor, And speed a-|way to- day to win e- ter- nal|glo- ry. Bear ye the|
w: wav- ing, And speed a-|way to those whose hearts to you are|call- ing. The hours are|
w: glad- ness, Shall come to|all who help some soul from sin to|se- ver. So work for|
 [Fd]2 [Fd]3 [DF][^C=E][DF] | [Fd]2 [Fd]3 [DF][^C=E][DF] | [Fd][Ge][Fd][Ec] [DB][DF][EG][F_A] | %12
w: tid- ings of love and|glad- ness, And tru- ly|co- ver all the dark- ened ter- ri-|
w: fleet- ing, the days are|pass- ing, And soon a-|round you night’s drear sha- dows will be|
w: Je- sus, that He may|bless you, And let you|reign with Him in par- a- dise for-|
 [EG]2 [EG]3 [EG][FA][GB] | [Ge]2 [Ge]3 [EG][GB][_Gc] | [Fd]2 [Fd]3 [DF][^C=E][DF] | %15
w: to- ry. Go forth with|cour- age, go forth with|sing- ing, O- bey the|
w: fall- ing; So do your|du- ty, to Him who|loves you. O- bey the|
w: ev- er; A- way, re-|joic- ing, to do the|reap- ing, O- bey the|
 [Fd]2 [Fd]2 [Ec]2 [Ec]2 | ([DB]6 (3DE=E) ||"^Refrain" [DF]4- x4 | [DF][DF][DB][Fd] x4 | %19
w: or- ders from the|King. * * *|||
w: or- ders from the|King. * * *|“Car-|* ry ye the|
w: or- ders from the|King. * * *|||
 [Ec]2 [DB]3 [Bd][Ac][GB] | [GB]2 [FA]3 [Ac][GB][FA] | [DB]2 [FA]2 [EG]2 [DF]2 | %22
w: |||
w: tid- ings, Oh, preach the|Gos- pel of love to|ev- ery na- tion;|
w: |||
 [Fd]4- [Fd][DF][DB][Fd] | [Ec]2 [DB]3 [DB][EA][FB] | [=Ec]2 [EG]2 [FA]2 [EB]2 | [Ec]6 z2 | %26
w: ||||
w: To * the liv- ing|wa- ters the wea- ry,|thirst- y peo- ple|bring;|
w: ||||
 [DF]4- [DF][DF][DB][Fd] | [Ec]2 [DB]3 [Bd][Ac][GB] | [GB]2 [FA]3 [Ac][GB][FA] | %29
w: |||
w: Show * to them the|path- way that leads to|Hea- ven, And tell them|
w: |||
 [DB]2 [FA]2 [EG]2 [DF]2 | [Fd]4- [Fd][DF][DB][Fd] | [Ge]2 [EG]3 [EG][GB][_Gc] | %32
w: |||
w: of sal- va- tion.”|These * are now the|or- ders, The bless- èd|
w: |||
 [Fd]2 [Fd]2 [Ec]2 [Ec]2 | [DB]4- [DB] |] %34
w: ||
w: or- ders from the|King. *|
w: ||
V:2
 [B,,B,][B,,B,][B,,B,] | [B,,B,]2 [B,,B,]3 [B,,B,][B,,B,][B,,B,] | %2
w: ~ ~ ~|~ ~ ~ ~ ~|
 [B,,B,]2 [B,,B,]3 [B,,B,][B,,B,][B,,B,] | %3
w: ~ ~ ~ ~ ~|
 [B,,B,][B,,B,][B,,B,][B,,B,] [B,,B,][B,,B,][B,,F,][B,,F,] | [C,F,]2 [C,F,]3 [F,A,][F,A,][F,A,] | %5
w: ~ ~ ~ ~ ~ ~ ~ ~|~ ~ ~ ~ ~|
 [F,A,]2 [F,A,]3 [F,A,][F,A,][F,A,] | [F,A,]2 [F,A,]3 [F,A,][F,A,][F,A,] | %7
w: ~ ~ ~ ~ ~|~ ~ ~ ~ ~|
 [F,A,][F,A,][F,C][F,A,] [F,C][F,A,][F,A,][F,A,] | [B,,B,]2 [B,,B,]3 [B,,B,][B,,B,][B,,B,] | %9
w: ~ ~ ~ ~ ~ ~ ~ ~|~ ~ ~ ~ ~|
 [B,,B,]2 [B,,B,]3 [B,,B,][B,,B,][B,,B,] | [B,,B,]2 [B,,B,]3 [B,,B,][B,,B,][B,,B,] | %11
w: ~ ~ ~ ~ ~|~ ~ ~ ~ ~|
 [B,,B,][B,,B,][B,,B,][B,,B,] [B,,B,][B,,B,][B,,B,][B,,B,] | [E,B,]2 [E,B,]3 [E,B,][E,B,][E,B,] | %13
w: ~ ~ ~ ~ ~ ~ ~ ~|~ ~ ~ ~ ~|
 [E,B,]2 [E,B,]3 [E,B,][E,B,][E,B,] | [B,,B,]2 [B,,B,]3 [B,,B,][B,,B,][B,,B,] | %15
w: ~ ~ ~ ~ ~|~ ~ ~ ~ ~|
 [F,B,]2 [F,B,]2 [F,A,]2 [F,A,]2 | (z2 F,2 [B,,B,]2) z2 || %17
w: ~ ~ ~ ~||
 [B,,B,]2 [F,,F,B,]2 [B,,B,]2 [F,,F,B,]2 | [B,,B,]2 [F,,F,B,]2 [B,,B,]2 [F,,F,B,]2 | %19
w: ~ “Car- ry ye|the tid- ings, Preach|
 [C,F,]2 [F,,F,C]2 [C,C]2 [F,,F,C]2 | [B,,B,]2 [F,A,]2 [E,G,]2 [D,F,]2 | %21
w: the Gos- pel true|to ev- ery na-|
 [B,,B,]2 [F,,F,B,]2 [B,,B,]2 [F,,F,B,]2 | [B,,B,]2 [F,,F,B,]2 [B,,B,]2 F,2 | %23
w: tion; To the liv-|ing wa- ters all|
 [C,B,]2 [B,C]2 [B,D]2 [G,C]2 | A,6 x2 | [B,,B,]2 [F,,F,B,]2 [B,,B,]2 [F,,F,B,]2 | %26
w: the thirs- ty peo-|ple|bring; Oh, haste a-|
 [B,,B,]2 [F,,F,B,]2 [B,,B,]2 [F,,F,B,]2 | [C,F,]2 [F,,F,C]2 [C,C]2 [F,,F,C]2 | %28
w: way to bring them,|Show to them the|
 [B,,B,]2 [F,A,]2 [E,G,]2 [D,F,]2 | [B,,B,]2 [F,,F,B,]2 [B,,B,]2 [B,,B,]2 | %30
w: path that leads to|Hea- ven, Tell them|
 [E,B,]2 [E,B,]2 [E,B,]2 [E,B,]2 | [F,B,]2 [F,B,]2 [F,A,]2 [F,A,]2 | [B,,B,]4- [B,,B,] x3 | x5 |] %34
w: of sal- va- tion.”|These are now the|bless- *||
V:3
 x3 | x8 | x8 | x8 | x8 | x8 | x8 | x8 | x8 | x8 | x8 | x8 | x8 | x8 | x8 | x8 | [B,,B,]6 x2 || %17
 x8 | x8 | x8 | x8 | x8 | x6 (C,D,) | x8 | F,G,A,G, F,E,D,C, | x8 | x8 | x8 | x8 | x8 | x8 | x8 | %32
 x8 | x5 |] %34

